!!!COM: Richard Strauss
!!!CNT: Deutscher
!!!TXO: Deutsche 
!!!OTL: Aus den Liedern der Trauer
!!!OPS: Opus 15
!!!ONM: No. 4
!!!LYR: A.F. von Schack
!!!ENC: Brian Bice
!!!YOR: Lieder, Complete Edition, vol. 1
!!!ODT: 1886/
!!NB: Vocal melody and text only encoded.
**kern	**silbe
*clefG2	*
*k[]	*
*M4/4	*
=2	=2
2r	.
4r	.
8r	.
{8e	{Dem
=3	=3
4e	Her-
4e	-zen
4f	a2hn-
4f	-lich,
=4	=4
4r	.
8cc	wenn
8b	es
8a	lang
8g	um-
[4f	-sonst
=5	=5
8f]	|
8f	nach
8g	ei-
8a	-ner
4.g	Tra2-
8f	-ne
=6	=6
2e}	rang,}
{4e	{de
8e	sei-
8e	-ne
=7	=7
2.b-	Qual
4a	ent-
=8	=8
2g	-bin-
4f}	-de,}
4r	.
=9	=9
{4a	{sprengt
8g	nun
8f	die
[2a	Er-
=10	=10
8a]	|
8f	-de,
8a	die
8cc#	er-
4ee	-starrt
4dd	von
=11	=11
4ccn	Reif
4b	und
4ccn	Frost
4dd	ge-
=12	=12
4.dd	-bun-
8e	-den
4e}	ward,}
{4e	{die
=13	=13
2.g	eis'-
4f	-ge
=14	=14
4.e	Win-
8e	-ter-
4e	-rin-
4A}	-de.}
=17	=17
2r	.
4r	.
{4a	{Durch
=18	=18
([2dd	Wald
8dd]	|
8a	|
8.f#)	|
16a	und
=19	=19
4.dd	Feld,
8dd	um
4dd	Berg
4ccn	und
=20	=20
[2b	See
8b]}	|}
{8b	{spriesst
8cc	wuch-
8dd	-ernd
=21	=21
2.ff	auf
4f	ihr
=22	=22
2.e	al-
4d	-tes
=23	=23
(2d	Weh'
4c)}	|}
4r	.
=24	=24
8r	.
{8c	{und
8c	gru2nt
8c	in
4f	Zweig
4c	und
=25	=25
2a	Ran-
4f}	-ken}
4r	.
=26	=26
8r	.
{8d-	{und
[4g-	dun-
8g-]	|
8g-	-kelt
8g-	in
8a-	dem
=27	=27
4.b-	Him-
8dd-	-mels-
4dd-}	-blau}
{4f#	{und
=28	=28
8bn	zit-
8f#	-tern
8.d	in
16f#	den
4b	Tro-
4cc#	-pfen
=29	=29
1dd}	Tau.}
=30	=30
{4dd	{die
8dd	an
8dd	den
4ccn	Gra2-
4b	-sern
=31	=31
2.ee	schwan-
4e}	-ken}
=34	=34
2r	.
4r	.
{4a	{Nun,
=35	=35
4r	.
[2a	Gram
8a]	|
8f	um
=36	=36
1a}	sie,}
=37	=37
{2cc	{die
4.b	ich
8a	ver-
=38	=38
4.ee	-lor,
8a	er-
4b-	-starr-
4g}	-ter,}
=39	=39
*M2/4	*
4r	.
{8e	{brich
8f	auch
=40	=40
*M4/4	*
4.g	du
8a	her-
4f	-vor,
4r	.
=41	=41
4f	um
8f	mit
8f	dem
4.b-	Strom
8f	zu
=42	=42
2dd	flu-
4b-}	-ten,}
4r	.
=43	=43
{2.b-	{brich
4b-	her-
=44	=44
2.bn	-vor!
4bn	Im
=45	=45
([2cc#	Blitz
8cc#]	|
8b	|
8.a)	|
16b	der
=46	=46
4.cc#	Wol-
8e	-ke
4a	sollst
4g	du
=47	=47
1fn}	glu2hn}
=48	=48
4r	.
{4b	{und
4.b	mit
8b	den
=49	=49
4b	-Naht
4cc	-vi-
4dd	-o-
4dd#	-len
=50	=50
[1ee	blu2hn
=51	=51
4ee]}	|}
{4ee	{und
4ee	mit
4ee	den
=52	=52
2.e	Ro-
4e	-sen
=53	=53
4b	blu-
4a}	-ten.}
2r	.
*-	*-
